source/img/icons/socials/youtube_darkblue.svg

<svg width="32" height="32" viewBox="0 0 32 32" fill="none" xmlns="http://www.w3.org/2000/svg">
<path d="M26.5846 4H5.41538C3.97914 4 2.60171 4.59234 1.58613 5.64671C0.570547 6.70108 0 8.13112 0 9.62222V21.3778C0 22.8689 0.570547 24.2989 1.58613 25.3533C2.60171 26.4077 3.97914 27 5.41538 27H26.5846C28.0209 27 29.3983 26.4077 30.4139 25.3533C31.4295 24.2989 32 22.8689 32 21.3778V9.62222C32 8.13112 31.4295 6.70108 30.4139 5.64671C29.3983 4.59234 28.0209 4 26.5846 4ZM22.2671 15.7249L12.6671 20.836C12.6297 20.8561 12.588 20.8659 12.5459 20.8645C12.5038 20.8631 12.4628 20.8505 12.4268 20.828C12.3907 20.8054 12.3608 20.7736 12.34 20.7357C12.3191 20.6977 12.308 20.6548 12.3077 20.6111V10.3889C12.308 10.3452 12.3191 10.3023 12.34 10.2643C12.3608 10.2264 12.3907 10.1946 12.4268 10.172C12.4628 10.1495 12.5038 10.1369 12.5459 10.1355C12.588 10.1341 12.6297 10.1439 12.6671 10.164L22.2671 15.2751C22.3074 15.2966 22.3412 15.3291 22.3649 15.3693C22.3885 15.4094 22.401 15.4555 22.401 15.5026C22.401 15.5496 22.3885 15.5957 22.3649 15.6358C22.3412 15.676 22.3074 15.7086 22.2671 15.73V15.7249Z" fill="#1F3F68"/>
</svg>

<svg width="32" height="32" fill="none" xmlns="http://www.w3.org/2000/svg"><path d="M26.585 4H5.415a5.316 5.316 0 00-3.829 1.647A5.733 5.733 0 000 9.622v11.756c0 1.49.57 2.92 1.586 3.975A5.316 5.316 0 005.416 27h21.169a5.316 5.316 0 003.829-1.647A5.733 5.733 0 0032 21.378V9.622c0-1.49-.57-2.92-1.586-3.975A5.316 5.316 0 0026.584 4zm-4.318 11.725l-9.6 5.111a.239.239 0 01-.24-.008.262.262 0 01-.12-.217V10.39a.262.262 0 01.12-.217.24.24 0 01.24-.008l9.6 5.111a.25.25 0 01.098.094.263.263 0 01-.098.361v-.005z" fill="#1F3F68"/></svg>
